X:1
T:Maurice Manley's Polka
M:2/4
L:1/8
R:polka
K:Ador
|:&quot;Am&quot;EA AB|cd e2|&quot;G&quot;G>F GA|GE ED|
|&quot;Am&quot;EA AB|B1/2c1/2d ef|&quot;G&quot;g1/2f1/2e&quot;Em&quot; dB|&quot;Am&quot;A2 A2:|
|:&quot;Am&quot;a>g ab|ag ef|&quot;G&quot;g>f ga|ge d2|
|&quot;Am&quot;ea ab|ag ef|&quot;G&quot;ge &quot;E7&quot;dB|&quot;Am&quot;A2 A2:|
